local/share/icons/dracula-icons-main/scalable/mimetypes/audio-x-generic.svg

<?xml version="1.0" encoding="UTF-8"?>
<svg xmlns="http://www.w3.org/2000/svg" xmlns:xlink="http://www.w3.org/1999/xlink" width="64" height="64" viewBox="0 0 64 64">
<defs>
<filter id="filter-remove-color" x="0%" y="0%" width="100%" height="100%">
<feColorMatrix color-interpolation-filters="sRGB" values="0 0 0 0 1 0 0 0 0 1 0 0 0 0 1 0 0 0 1 0" />
</filter>
<mask id="mask-0">
<g filter="url(#filter-remove-color)">
<rect x="-6.4" y="-6.4" width="76.8" height="76.8" fill="rgb(0%, 0%, 0%)" fill-opacity="0.1"/>
</g>
</mask>
<linearGradient id="linear-pattern-0" gradientUnits="userSpaceOnUse" x1="49.570999" y1="52.714001" x2="51.714001" y2="54.856998" gradientTransform="matrix(0.617345, 0, 0, 0.617345, -18.167916, -19.050025)">
<stop offset="0" stop-color="rgb(0%, 0%, 0%)" stop-opacity="1"/>
<stop offset="1" stop-color="rgb(0%, 0%, 0%)" stop-opacity="0"/>
</linearGradient>
<clipPath id="clip-0">
<rect x="0" y="0" width="17" height="17"/>
</clipPath>
<g id="source-11909" clip-path="url(#clip-0)">
<path fill-rule="evenodd" fill="url(#linear-pattern-0)" d="M 14.816406 12.171875 L 11.113281 15.875 L 13.492188 15.875 C 14.226562 15.875 14.816406 15.285156 14.816406 14.550781 Z M 14.816406 12.171875 "/>
</g>
</defs>
<path fill-rule="nonzero" fill="rgb(95.686275%, 95.686275%, 95.686275%)" fill-opacity="1" d="M 3.441406 1.058594 L 13.492188 1.058594 C 14.222656 1.058594 14.816406 1.652344 14.816406 2.382812 L 14.816406 14.550781 C 14.816406 15.28125 14.222656 15.875 13.492188 15.875 L 3.441406 15.875 C 2.707031 15.875 2.117188 15.28125 2.117188 14.550781 L 2.117188 2.382812 C 2.117188 1.652344 2.707031 1.058594 3.441406 1.058594 Z M 3.441406 1.058594 "/>
<g mask="url(#mask-0)">
<use xlink:href="#source-11909"/>
</g>
<path fill-rule="nonzero" fill="rgb(92.156863%, 34.117647%, 47.843137%)" fill-opacity="1" d="M 10.847656 5.292969 C 10.753906 5.289062 10.628906 5.304688 10.460938 5.332031 L 7.695312 5.753906 C 7.027344 5.894531 7.03125 5.941406 7.027344 6.503906 L 7.027344 11.082031 C 7 11.0625 6.972656 11.042969 6.945312 11.023438 C 6.734375 10.882812 6.507812 10.78125 6.203125 10.78125 C 5.824219 10.78125 5.59375 10.925781 5.457031 11.117188 C 5.320312 11.308594 5.273438 11.550781 5.273438 11.738281 C 5.273438 11.964844 5.351562 12.203125 5.519531 12.386719 C 5.6875 12.570312 5.941406 12.699219 6.3125 12.699219 C 6.730469 12.699219 7.023438 12.582031 7.1875 12.355469 C 7.316406 12.175781 7.390625 11.9375 7.417969 11.644531 L 7.417969 11.640625 C 7.417969 11.605469 7.421875 11.570312 7.425781 11.53125 C 7.429688 11.472656 7.425781 11.363281 7.425781 11.363281 L 7.425781 7.859375 C 7.425781 7.359375 7.425781 7.328125 8.09375 7.214844 L 10.0625 6.90625 C 10.730469 6.816406 10.730469 6.878906 10.730469 7.253906 L 10.730469 10.472656 C 10.703125 10.453125 10.679688 10.433594 10.648438 10.414062 C 10.4375 10.273438 10.210938 10.171875 9.90625 10.171875 C 9.527344 10.171875 9.300781 10.316406 9.164062 10.507812 C 9.027344 10.703125 8.980469 10.941406 8.980469 11.128906 C 8.980469 11.355469 9.058594 11.597656 9.222656 11.78125 C 9.390625 11.964844 9.648438 12.089844 10.015625 12.089844 C 10.433594 12.089844 10.726562 11.976562 10.894531 11.746094 C 11.023438 11.570312 11.09375 11.328125 11.121094 11.035156 C 11.125 10.996094 11.128906 10.960938 11.128906 10.921875 C 11.132812 10.863281 11.132812 10.757812 11.132812 10.757812 L 11.132812 5.878906 C 11.132812 5.441406 11.128906 5.292969 10.847656 5.292969 Z M 10.847656 5.292969 "/>
</svg>

<svg width="64" height="64" version="1.1" viewBox="0 0 16.933 16.933" xmlns="http://www.w3.org/2000/svg">
 <defs>
  <linearGradient id="a" x1="49.571" x2="51.714" y1="52.714" y2="54.857" gradientTransform="matrix(2.3333,0,0,2.3333,-68.667,-72.001)" gradientUnits="userSpaceOnUse">
   <stop offset="0"/>
   <stop stop-opacity="0" offset="1"/>
  </linearGradient>
 </defs>
 <g transform="scale(.26458)">
  <rect x="8" y="4" width="48" height="56" ry="5" fill="#f4f4f4" style="paint-order:stroke fill markers"/>
  <path d="m56 46-14 14h9c2.77 0 5-2.23 5-5z" fill="url(#a)" fill-rule="evenodd" opacity=".1" stroke-width="8.8191" style="paint-order:stroke fill markers"/>
 </g>
 <path d="m10.848 5.2916c-0.09398-1e-3 -0.21892 0.01361-0.38515 0.03859l-2.7661 0.42296c-0.66784 0.14221-0.66555 0.18644-0.66781 0.75066v4.578c-0.02785-0.01951-0.05533-0.03913-0.08412-0.05843v1.98e-4c-0.21218-0.14219-0.43832-0.24338-0.74206-0.24338-0.38046 0-0.60735 0.14568-0.7447 0.33757s-0.1829 0.43375-0.1829 0.62072c0 0.22546 0.07698 0.46608 0.24397 0.64944s0.42373 0.31177 0.79287 0.31177c0.41684 0 0.71006-0.1164 0.87582-0.34372 0.13051-0.17898 0.20268-0.4181 0.22843-0.71305v-8.5e-4c0.0036-0.03578 0.0062-0.07254 0.0085-0.1104 0.0035-0.0583 0.0027-0.16737 0.0027-0.16737v-3.5053c0-0.50076-2.4e-5 -0.53065 0.668-0.64485l1.9671-0.30855c0.66923-0.08756 0.66937-0.02667 0.66937 0.3494v3.2169c-0.0271-0.01899-0.05387-0.0381-0.08188-0.05686v1.98e-4c-0.21218-0.14219-0.43822-0.24338-0.74197-0.24338-0.38046 0-0.60745 0.14568-0.7448 0.33757-0.13735 0.19188-0.1829 0.43375-0.1829 0.62072 0 0.22546 0.07708 0.46608 0.24406 0.64944 0.16699 0.18337 0.42373 0.31187 0.79287 0.31187 0.41684 0 0.71006-0.1165 0.87582-0.34382 0.13051-0.17898 0.20258-0.418 0.22833-0.71295v-9.25e-4c0.0036-0.03578 0.0062-0.07244 0.0085-0.11031 0.0035-0.0583 0.0028-0.16746 0.0028-0.16746v-4.8767c0-0.4392-0.0029-0.58465-0.28481-0.58779z" enable-background="new" fill="#eb577a"/>
</svg>
